X:1
T:Title
%%score { ( 1 3 ) | ( 2 4 ) }
L:1/8
M:4/4
K:Db
V:1 treble nm="Grand Piano"
V:3 treble 
V:2 bass 
V:4 bass 
V:1
 z4 z2[Q:1/4=92] [DF][EG] | [FA]>[FA] [FA]>[FA] [FA]2 [_F=G][=FA] | B>B B>B B2 =AB | %3
 c>c c>c B2 [CGA]2 | [DFd]6 [A,DF][A,EG] | [FA]>[FA] [FA]>[FA] [FA]2 [_F=G][=FA] | %6
[M:9/8] [GB]>[GB][AB]- [AB]/[AB]/ [=Ge]2- [Ge][Gd][Gd] |[M:4/4] c>c c>B A2 e2 |[M:3/4] [Fd]6 | %9
[M:1/4] [FA][FA] |[M:4/4] [Fd]>[Fd] [Fd]>[Fd] [Fd]>[Fe] [Fd][Ac] |[M:3/4] B6 |[M:1/4] [GB][GB] | %13
[M:4/4] [=GB]>[GB] [GB]>[GB] [GB]>[GB] [Gc][Gd] |[M:3/4] e6 |[M:1/4] AA | %16
[M:4/4] [Ff]>[Af] e>e d2 AA |[M:7/8] B>B=A>B [=Ge]3 |[M:1/4] [Gd][Gd] | %19
[M:4/4] c>c c>B A>A [DGB][EGc] |[M:3/4] d6 |] %21
V:2
 z4 z2 [D,A,][D,A,] | [D,D]>[D,D] [D,D]>[D,D] [D,D]2 [D,D][D,D] | %2
 [G,DG]>[G,DG] [G,DG]>[G,DG] [G,DG]2 [G,DG][G,DG] | %3
 [A,G]>[A,EG] [A,EG]>[A,EG] [A,DG]2[K:bass] A,,2 | D,6 D,D, | %5
 [D,D]>[D,D] [D,D]>[D,D] [D,D]2 [D,D][D,D] | %6
[M:9/8] [G,D]>[G,D][F,=D]- [F,D]/[F,D]/ [B,E]2- [B,E][E,E][E,E] | %7
[M:4/4][K:treble] [A,EG]>[A,EG] [A,EG]>[A,DG] [A,CG]2[K:bass] [A,,CG]2 |[M:3/4] [D,D]6 | %9
[M:1/4] [D,D][D,D] |[M:4/4] [D,A,]>[D,A,] [D,A,]>[D,A,] [D,A,]>[D,A,] [D,A,][F,D] | %11
[M:3/4] [G,DG]>[G,D] [F,=D]>[F,D] [E,E]2 |[M:1/4] [E,E][E,E] | %13
[M:4/4] [E,E]>[E,E] [E,E]>[E,E] [E,E]>[E,E] [E,E][E,E] | %14
[M:3/4][K:treble] [A,CG]>[A,C] [A,C]>[A,C] [A,C]2 |[M:1/4] [A,CG][A,CG] | %16
[M:4/4][K:bass] [D,A,]>[D,D][K:treble] [A,CG]>[A,CG] [B,DF]2[K:bass] [F,D][F,D] | %17
[M:7/8] [G,DG]>[G,DG][G,CG]>[G,DG] [E,E]3 |[M:1/4] [E,E][E,E] | %19
[M:4/4][K:treble] [A,EG]>[A,EG] [A,EG]>[A,DG] [A,CG]>[A,CG][K:bass] A,,A,, |[M:3/4] z2 B,>B, A,2 |] %21
V:3
 x8 | x8 | x8 | x8 | x8 | x8 |[M:9/8] x9 |[M:4/4] x8 |[M:3/4] x6 |[M:1/4] x2 |[M:4/4] x8 | %11
[M:3/4] z z/ G/ A>A G2 |[M:1/4] x2 |[M:4/4] x8 |[M:3/4] z z/ G/ G>G G2 |[M:1/4] x2 |[M:4/4] x8 | %17
[M:7/8] x7 |[M:1/4] x2 |[M:4/4] x8 |[M:3/4] [DF]2 G>G F2 |] %21
V:4
 x8 | x8 | x8 | x6[K:bass] x2 | x8 | x8 |[M:9/8] x9 |[M:4/4][K:treble] x6[K:bass] x2 |[M:3/4] x6 | %9
[M:1/4] x2 |[M:4/4] x8 |[M:3/4] x6 |[M:1/4] x2 |[M:4/4] x8 |[M:3/4][K:treble] x6 |[M:1/4] x2 | %16
[M:4/4][K:bass] x2[K:treble] x4[K:bass] x2 |[M:7/8] x7 |[M:1/4] x2 | %19
[M:4/4][K:treble] x6[K:bass] x2 |[M:3/4] D,6 |] %21

